packages/editor-ui/public/n8n-beta-logo.svg

<svg width="201" height="40" viewBox="0 0 201 40" fill="none" xmlns="http://www.w3.org/2000/svg">
<g clip-path="url(#clip0_15_2918)">
<path fill-rule="evenodd" clip-rule="evenodd" d="M78.9736 8C78.9736 12.4183 75.3919 16 70.9736 16C67.246 16 64.1138 13.4505 63.2257 10H52.0564C50.101 10 48.4323 11.4137 48.1108 13.3424L47.782 15.3152C47.4698 17.1883 46.5223 18.8185 45.1824 20C46.5223 21.1815 47.4698 22.8117 47.782 24.6848L48.1108 26.6576C48.4323 28.5863 50.101 30 52.0564 30H55.2257C56.1138 26.5495 59.246 24 62.9736 24C67.3919 24 70.9736 27.5817 70.9736 32C70.9736 36.4183 67.3919 40 62.9736 40C59.246 40 56.1138 37.4505 55.2257 34H52.0564C48.1457 34 44.8082 31.1727 44.1653 27.3152L43.8364 25.3424C43.515 23.4137 41.8462 22 39.8909 22H36.628C35.6294 25.2801 32.5802 27.6667 28.9736 27.6667C25.367 27.6667 22.3179 25.2801 21.3193 22H16.628C15.6294 25.2801 12.5802 27.6667 8.97363 27.6667C4.55536 27.6667 0.973633 24.0849 0.973633 19.6667C0.973633 15.2484 4.55536 11.6667 8.97363 11.6667C12.8204 11.6667 16.033 14.3817 16.7998 18H21.1475C21.9143 14.3817 25.1269 11.6667 28.9736 11.6667C32.8204 11.6667 36.033 14.3817 36.7998 18H39.8909C41.8462 18 43.515 16.5863 43.8364 14.6576L44.1653 12.6848C44.8082 8.8273 48.1457 6 52.0564 6H63.2257C64.1138 2.54955 67.246 0 70.9736 0C75.3919 0 78.9736 3.58172 78.9736 8ZM74.9736 8C74.9736 10.2091 73.1828 12 70.9736 12C68.7645 12 66.9736 10.2091 66.9736 8C66.9736 5.79086 68.7645 4 70.9736 4C73.1828 4 74.9736 5.79086 74.9736 8ZM8.97363 23.6667C11.1828 23.6667 12.9736 21.8758 12.9736 19.6667C12.9736 17.4575 11.1828 15.6667 8.97363 15.6667C6.76449 15.6667 4.97363 17.4575 4.97363 19.6667C4.97363 21.8758 6.76449 23.6667 8.97363 23.6667ZM28.9736 23.6667C31.1828 23.6667 32.9736 21.8758 32.9736 19.6667C32.9736 17.4575 31.1828 15.6667 28.9736 15.6667C26.7645 15.6667 24.9736 17.4575 24.9736 19.6667C24.9736 21.8758 26.7645 23.6667 28.9736 23.6667ZM62.9736 36C65.1828 36 66.9736 34.2091 66.9736 32C66.9736 29.7909 65.1828 28 62.9736 28C60.7645 28 58.9736 29.7909 58.9736 32C58.9736 34.2091 60.7645 36 62.9736 36Z" fill="#EA4B71"/>
<path d="M86.9785 30.001H91.1554V21.1578C91.1554 18.2536 92.9175 16.981 94.908 16.981C96.8659 16.981 98.3996 18.2862 98.3996 20.962V30.001H102.576V20.1136C102.576 15.8389 100.096 13.3589 96.2133 13.3589C93.7659 13.3589 92.3954 14.3378 91.4164 15.6104H91.1554L90.7964 13.6852H86.9785V30.001Z" fill="#101330"/>
<path d="M118.563 19.0041V18.8083C119.999 18.0904 121.435 16.8504 121.435 14.4031C121.435 10.8789 118.53 8.75781 114.517 8.75781C110.405 8.75781 107.468 11.0094 107.468 14.4683C107.468 16.8178 108.839 18.0904 110.34 18.8083V19.0041C108.676 19.5915 106.685 21.3536 106.685 24.2904C106.685 27.8473 109.622 30.3273 114.484 30.3273C119.346 30.3273 122.185 27.8473 122.185 24.2904C122.185 21.3536 120.227 19.6241 118.563 19.0041ZM114.484 11.7599C116.116 11.7599 117.323 12.8041 117.323 14.5662C117.323 16.3283 116.083 17.3726 114.484 17.3726C112.885 17.3726 111.547 16.3283 111.547 14.5662C111.547 12.7715 112.82 11.7599 114.484 11.7599ZM114.484 27.1947C112.591 27.1947 111.058 25.9873 111.058 23.9315C111.058 22.0715 112.33 20.6683 114.451 20.6683C116.54 20.6683 117.813 22.0389 117.813 23.9968C117.813 25.9873 116.344 27.1947 114.484 27.1947Z" fill="#101330"/>
<path d="M126.428 30.001H130.605V21.1578C130.605 18.2536 132.367 16.981 134.358 16.981C136.316 16.981 137.849 18.2862 137.849 20.962V30.001H142.026V20.1136C142.026 15.8389 139.546 13.3589 135.663 13.3589C133.216 13.3589 131.845 14.3378 130.866 15.6104H130.605L130.246 13.6852H126.428V30.001Z" fill="#101330"/>
</g>
<rect x="154" y="12.5" width="47" height="19" rx="3" fill="#EA4B71"/>
<path d="M164.496 21.334C165.196 21.586 166.134 22.272 166.134 23.784C166.134 25.506 164.944 26.5 162.97 26.5H158.966V16.7H162.998C164.93 16.7 165.854 17.708 165.854 19.15C165.854 20.326 165.21 20.914 164.496 21.25V21.334ZM160.772 18.184V20.718H162.718C163.558 20.718 164.006 20.214 164.006 19.444C164.006 18.66 163.502 18.184 162.746 18.184H160.772ZM162.802 25.016C163.754 25.016 164.244 24.442 164.244 23.644C164.244 22.818 163.712 22.202 162.802 22.202H160.772V25.016H162.802ZM170.963 24.89H175.863V26.5H169.157V16.7H175.723V18.31H170.963V20.746H175.065V22.314H170.963V24.89ZM185.606 16.7V18.352H182.834V26.5H180.986V18.352H178.214V16.7H185.606ZM193.795 26.5L192.997 24.134H189.329L188.531 26.5H186.557L190.057 16.7H192.283L195.769 26.5H193.795ZM189.833 22.608H192.493L191.219 18.828H191.107L189.833 22.608Z" fill="white"/>
<defs>
<clipPath id="clip0_15_2918">
<rect width="143" height="40" fill="white"/>
</clipPath>
</defs>
</svg>

<svg xmlns="http://www.w3.org/2000/svg" width="201" height="40" fill="none"><g clip-path="url(#a)"><path fill="#EA4B71" fill-rule="evenodd" d="M78.974 8a8 8 0 0 1-15.748 2h-11.17a4 4 0 0 0-3.945 3.342l-.329 1.973a7.98 7.98 0 0 1-2.6 4.685 7.98 7.98 0 0 1 2.6 4.685l.329 1.973A4 4 0 0 0 52.056 30h3.17a8 8 0 1 1 0 4h-3.17a8 8 0 0 1-7.89-6.685l-.33-1.973A4 4 0 0 0 39.891 22h-3.263a8.004 8.004 0 0 1-15.309 0h-4.691a8 8 0 1 1 .172-4h4.348A8.003 8.003 0 0 1 36.8 18h3.09a4 4 0 0 0 3.946-3.342l.33-1.973A8 8 0 0 1 52.055 6h11.17a8 8 0 0 1 15.748 2m-4 0a4 4 0 1 1-8 0 4 4 0 0 1 8 0m-66 15.667a4 4 0 1 0 0-8 4 4 0 0 0 0 8m20 0a4 4 0 1 0 0-8 4 4 0 0 0 0 8m34 12.333a4 4 0 1 0 0-8 4 4 0 0 0 0 8" clip-rule="evenodd"/><path fill="#101330" d="M86.979 30.001h4.176v-8.843c0-2.904 1.763-4.177 3.753-4.177 1.958 0 3.492 1.305 3.492 3.981v9.039h4.176v-9.887c0-4.275-2.48-6.755-6.363-6.755-2.447 0-3.818.979-4.797 2.251h-.26l-.36-1.925h-3.818zm31.584-10.997v-.196c1.436-.718 2.872-1.958 2.872-4.405 0-3.524-2.905-5.645-6.918-5.645-4.112 0-7.049 2.251-7.049 5.71 0 2.35 1.371 3.622 2.872 4.34v.196a5.54 5.54 0 0 0-3.655 5.286c0 3.557 2.937 6.037 7.799 6.037s7.701-2.48 7.701-6.037c0-2.936-1.958-4.666-3.622-5.286m-4.079-7.244c1.632 0 2.839 1.044 2.839 2.806s-1.24 2.807-2.839 2.807-2.937-1.045-2.937-2.807c0-1.795 1.273-2.806 2.937-2.806m0 15.435c-1.893 0-3.426-1.208-3.426-3.264 0-1.86 1.272-3.263 3.393-3.263 2.089 0 3.362 1.37 3.362 3.329 0 1.99-1.469 3.198-3.329 3.198m11.944 2.806h4.177v-8.843c0-2.904 1.762-4.177 3.753-4.177 1.958 0 3.491 1.305 3.491 3.981v9.039h4.177v-9.887c0-4.275-2.48-6.755-6.363-6.755-2.447 0-3.818.979-4.797 2.251h-.261l-.359-1.925h-3.818z"/></g><rect width="47" height="19" x="154" y="12.5" fill="#EA4B71" rx="3"/><path fill="#fff" d="M164.496 21.334c.7.252 1.638.938 1.638 2.45 0 1.722-1.19 2.716-3.164 2.716h-4.004v-9.8h4.032c1.932 0 2.856 1.008 2.856 2.45 0 1.176-.644 1.764-1.358 2.1zm-3.724-3.15v2.534h1.946c.84 0 1.288-.504 1.288-1.274 0-.784-.504-1.26-1.26-1.26zm2.03 6.832c.952 0 1.442-.574 1.442-1.372 0-.826-.532-1.442-1.442-1.442h-2.03v2.814zm8.161-.126h4.9v1.61h-6.706v-9.8h6.566v1.61h-4.76v2.436h4.102v1.568h-4.102zm14.643-8.19v1.652h-2.772V26.5h-1.848v-8.148h-2.772V16.7zm8.189 9.8-.798-2.366h-3.668l-.798 2.366h-1.974l3.5-9.8h2.226l3.486 9.8zm-3.962-3.892h2.66l-1.274-3.78h-.112z"/><defs><clipPath id="a"><path fill="#fff" d="M0 0h143v40H0z"/></clipPath></defs></svg>
